mimes/scalable/application-x-deb.svg

<?xml version="1.0" encoding="UTF-8" standalone="no"?>
<svg
   xmlns:dc="http://purl.org/dc/elements/1.1/"
   xmlns:cc="http://creativecommons.org/ns#"
   xmlns:rdf="http://www.w3.org/1999/02/22-rdf-syntax-ns#"
   xmlns:svg="http://www.w3.org/2000/svg"
   xmlns="http://www.w3.org/2000/svg"
   xmlns:sodipodi="http://sodipodi.sourceforge.net/DTD/sodipodi-0.dtd"
   xmlns:inkscape="http://www.inkscape.org/namespaces/inkscape"
   width="48"
   height="48"
   viewBox="0 0 12.7 12.7"
   version="1.1"
   id="svg4"
   sodipodi:docname="application-x-deb.svg"
   inkscape:version="0.92.3 (2405546, 2018-03-11)">
  <metadata
     id="metadata10">
    <rdf:RDF>
      <cc:Work
         rdf:about="">
        <dc:format>image/svg+xml</dc:format>
        <dc:type
           rdf:resource="http://purl.org/dc/dcmitype/StillImage" />
        <dc:title></dc:title>
      </cc:Work>
    </rdf:RDF>
  </metadata>
  <defs
     id="defs8" />
  <sodipodi:namedview
     pagecolor="#ffffff"
     bordercolor="#666666"
     borderopacity="1"
     objecttolerance="10"
     gridtolerance="10"
     guidetolerance="10"
     inkscape:pageopacity="0"
     inkscape:pageshadow="2"
     inkscape:window-width="1366"
     inkscape:window-height="715"
     id="namedview6"
     showgrid="false"
     showguides="true"
     inkscape:guide-bbox="true"
     inkscape:snap-global="true"
     inkscape:zoom="2.7447917"
     inkscape:cx="24"
     inkscape:cy="24"
     inkscape:window-x="0"
     inkscape:window-y="27"
     inkscape:window-maximized="1"
     inkscape:current-layer="svg4" />
  <g
     id="g827">
    <path
       inkscape:connector-curvature="0"
       id="path830"
       d="m 7.3427797,0.50332846 c -0.049987,0 -0.095505,0.0111265 -0.1281231,0.0294556 -0.030738,0.0172693 -0.048532,0.0415092 -0.050642,0.0676961 h -0.00101 V 1.5880167 c 0.1738671,0.051264 0.3313553,0.1228715 0.4613439,0.2185914 0.2311034,0.1701772 0.3815506,0.4003066 0.4026002,0.6588745 h 0.00811 v 0.061495 0.1302247 0.1235067 0.1741495 c 0,0.2538482 0.2767574,0.45837 0.619852,0.45837 h 0.1443282 l -5.186e-4,0.00517 h 2.0641477 c 0.402446,0 0.748641,0.1348703 0.999156,0.3369302 V 2.607076 2.4680664 2.2840983 1.0676351 0.96169839 c 0,-0.12692449 -0.06935,-0.2417064 -0.181296,-0.32452799 C 11.568784,0.5543488 11.413725,0.50332846 11.242176,0.50332846 H 9.4124981 7.8755282 Z"
       style="opacity:1;fill:#892ca0;fill-opacity:1;fill-rule:nonzero;stroke:none;stroke-width:0.50711799;stroke-linecap:round;stroke-linejoin:bevel;stroke-miterlimit:4;stroke-dasharray:none;stroke-opacity:1" />
    <path
       inkscape:connector-curvature="0"
       id="path833"
       d="m 2.0098987,1.9912065 c -0.7823206,0 -1.4117922,0.4429314 -1.4117922,0.9928533 V 11.64666 c 0,0.549921 0.6294716,0.992854 1.4117922,0.992854 h 5.3339356 3.1393877 c 0.782323,0 1.411795,-0.442933 1.411795,-0.992854 V 4.7215532 h -0.01608 C 11.797901,4.2265379 11.209824,3.843086 10.483224,3.843086 H 8.3767919 v 0 L 8.2301609,3.838116 C 7.8804595,3.8262648 7.5979089,3.6397857 7.5979089,3.3936834 V 3.2250392 3.1052277 2.9790864 2.9194067 h -0.00833 C 7.5461916,2.413392 6.9711816,2.0160708 6.2478645,1.993467 L 6.247203,1.991207 h -0.02508 z"
       style="opacity:1;fill:#333333;fill-opacity:1;fill-rule:nonzero;stroke:none;stroke-width:0.50711799;stroke-linecap:round;stroke-linejoin:bevel;stroke-miterlimit:4;stroke-dasharray:none;stroke-opacity:1" />
    <path
       inkscape:connector-curvature="0"
       id="path901-5"
       d="m 6.3423961,2.5881751 c 0.3276849,0.016569 0.5852967,0.2006791 0.5852981,0.4289428 v 0.2179872 0.1063568 0.078669 c 0,0.4896925 0.5323583,0.8835327 1.2226954,0.9471021 v 0 l 2.4421494,0.022855 c 0.350073,0.00327 0.632251,0.192791 0.632251,0.4320193 v 1.7720255 5.0145862 c 0,0.239228 -0.282145,0.432019 -0.632251,0.432019 H 7.3438343 1.9005576 c -0.3501059,0 -0.632252,-0.192791 -0.632252,-0.432019 V 3.0219522 c 0,-0.2392282 0.2821461,-0.4320192 0.632252,-0.4320192 h 4.4424807 z"
       style="opacity:1;fill:#cccccc;fill-opacity:1;fill-rule:nonzero;stroke:none;stroke-width:0.50711799;stroke-linecap:round;stroke-linejoin:bevel;stroke-miterlimit:4;stroke-dasharray:none;stroke-opacity:1" />
    <path
       inkscape:connector-curvature="0"
       id="path836"
       d="m 8.7514037,4.3537029 v 2.8520223 c 0,0.161441 0.069349,0.3049521 0.1782837,0.4082436 C 8.7506653,7.7387362 8.6330646,7.946232 8.6330646,8.1798257 v 1.377694 c 0,0.3789902 0.3081316,0.6893603 0.6888469,0.6893603 0.3807156,0 0.6888465,-0.3103701 0.6888465,-0.6893603 v -1.377694 c 0,-0.232828 -0.1165265,-0.4394088 -0.2945554,-0.5643065 0.107937,-0.1039428 0.1762167,-0.2489001 0.1762167,-0.409794 V 4.3537029 H 9.6071654 V 4.63844 H 9.3219115 v 0.2852539 h 0.2852539 v 0.285254 H 9.3219115 c 0,0 0.011662,0.1809697 0,0.2857706 H 9.6071654 V 5.7799724 H 9.3219115 V 6.0647096 H 9.6071654 V 6.3499635 H 9.3219115 V 6.6352174 H 9.6071654 V 6.9204713 H 9.3219115 V 7.2057252 H 9.6071654 V 7.4904621 H 9.3219115 V 7.2057252 H 9.0366576 V 6.9204713 H 9.3219115 V 6.6352174 H 9.0366576 V 6.3499635 H 9.3219115 V 6.0647096 H 9.0366576 V 5.7799724 H 9.3219115 V 5.4947185 H 9.0366576 V 5.2089479 H 9.3219115 V 4.9236939 H 9.0366576 V 4.63844 H 9.3219115 V 4.3537029 H 9.0366576 Z M 9.3219115,7.835144 c 0.1901833,0 0.3446817,0.1379588 0.3446817,0.3446817 0,0.1722692 -0.1544984,0.344165 -0.3446817,0.344165 -0.1901859,0 -0.3446819,-0.1718958 -0.3446817,-0.344165 0,-0.2067229 0.1544958,-0.3446819 0.3446817,-0.3446817 z m 0,1.0335287 c 0.1902823,0 0.3446817,0.1543997 0.3446817,0.3446817 v 0.3441653 c 0,0.190282 -0.1543994,0.3446808 -0.3446817,0.3446808 -0.1902849,0 -0.3446819,-0.1543988 -0.3446817,-0.3446808 V 9.2133544 c 0,-0.190282 0.1543968,-0.3446817 0.3446817,-0.3446817 z"
       style="opacity:1;fill:#892ca0;fill-opacity:1;stroke-width:0.26458335" />
    <path
       id="path837"
       d="m 5.2793209,4.8979656 -0.1560628,0.01292 c -0.2620002,0.024 0.1420629,0.00408 0.1560628,-0.01292 z m -0.3849895,0.040824 c -0.03,-0.029 -0.3362876,0.1020532 -0.2862874,0.017052 A 4.2599999,4.2599999 0 0 0 3.8370315,5.3237786 1.964,1.964 0 0 0 3.3119989,5.745975 C 3.1289991,5.9099749 3.0940431,6.1728043 2.928043,6.3418043 2.7850431,6.5078044 2.7092527,6.8459784 2.6262529,7.0869783 c 0.044,0.2120001 1.96e-5,0.4299556 0.01602,0.6459556 -0.05,0.8849998 0.3498384,1.7656124 0.9968384,2.3616131 0.4410001,0.422999 1.0403639,0.708243 1.660364,0.670243 -0.2030001,-0.077 -0.4602039,-0.04909 -0.638204,-0.203089 -0.062,-0.047 -0.1608201,-0.172901 -0.1948201,-0.181901 0.088,0.163 -0.2144691,-0.09392 -0.2764689,-0.08992 0.1140004,-0.108 -0.1799538,-0.1301 -0.1989538,-0.2651 -0.1640001,0.057 -0.2027983,-0.3007777 -0.2557983,-0.2397777 -0.046,-0.07 -0.3120886,-0.349185 -0.2030884,-0.360185 C 3.4101416,9.3058202 3.4021144,9.1459 3.3001144,8.9649001 c 0.1260001,0.1439997 0.1041873,-0.00827 0.021188,-0.1162722 -0.106,-0.075 -0.3521001,-0.2240169 -0.2651001,-0.3550169 -0.054,-0.08 -0.08016,-0.163899 -0.05116,-0.258899 -0.127,-0.25 -0.069925,-0.5511385 -0.043925,-0.8211386 0.008,-0.182 0.028158,-0.3638648 0.1281578,-0.519865 0.010999,-0.075 0.1660451,-0.2198454 0.063045,-0.2418455 A 2.33,2.33 0 0 1 3.7052579,6.0699862 c 0.047,-0.043 0.385907,-0.1551239 0.212907,-0.1271241 0.029,-0.1449999 0.3529261,-0.1801138 0.4909262,-0.2501138 -0.2530001,0.058 0.018889,-0.037735 0.1198893,-0.099736 0.04,-0.075 0.5200666,-0.1470787 0.2640666,-0.064079 0.03,-0.009 0.4382511,-0.090207 0.6242515,-0.037207 0.4769998,0.042 0.8797946,0.3648448 1.1187946,0.7658449 0.1220001,0.182 0.1679739,0.43005 0.2149739,0.61805 -0.006,0.22 0.030176,0.4453578 -0.040824,0.6583577 0.1090001,-0.2309998 0.00618,0.1967984 -0.040824,0.2557983 -0.1770001,0.065 -0.062335,0.3059364 -0.2723348,0.3679362 -0.06,0.071 -0.3547729,0.2860038 -0.2087729,0.1080037 C 6.0683108,8.3787178 5.9264161,8.471893 5.775416,8.486893 5.1954145,8.6698936 4.5553538,8.1239132 4.5713537,7.5319133 c -0.042,0.072 -0.040288,-0.070378 -0.024289,-0.1503786 0.048,-0.4889997 0.5673137,-0.849671 1.0423137,-0.7296711 0.1000001,-0.028 0.468603,0.2967355 0.2806031,0.099735 -0.33,-0.366 -1.0027178,-0.3036411 -1.2397178,0.1343589 -0.135,0.1019998 -0.1498931,0.2799953 -0.2278931,0.4159951 -0.052,0.2789999 -0.020137,0.5887225 0.1498616,0.8237223 0.095,0.206 0.3882025,0.3019597 0.4532024,0.4919599 -0.1219999,-0.009 -0.4801393,-0.4207672 -0.2971395,-0.1777672 0.222,0.2280002 -0.087278,-0.035224 -0.1472776,-0.1302245 -0.163,-0.1809999 -0.029874,0.046071 0.050126,0.1100709 C 4.9081437,8.6997143 5.3463941,8.918919 5.7593941,8.7959189 5.5133943,8.7819199 5.196354,8.8118309 5.018354,8.5928306 c 0.3420003,0.1169998 0.7546746,0.1528323 1.0996746,-0.00517 0.2320002,-0.089 0.419212,-0.2759144 0.5922119,-0.4289145 -0.035,0.2410002 0.02195,-0.1479542 0.09095,-0.1989542 0.09,0.1680001 0.049856,-0.052889 0.1188559,-0.1198893 0.076,-0.095 0.1400569,-0.5723091 0.1250569,-0.2253092 -0.062,0.243 0.044986,-0.057043 0.014986,-0.1400431 -0.017,-0.1700001 0.025194,-0.047592 0.052193,0.043408 -0.05,-0.1200002 0.1000728,-0.3589896 0.033073,-0.3849896 -0.06,-0.1599999 0.00292,-0.2570623 -0.095085,-0.4180623 0.1469999,0.2199999 0.025786,-0.1403091 0.00878,-0.2253092 -0.077,0.03 -0.1680001,-0.2115994 0,-0.1725993 0.085,-0.011001 0.1632895,0.3289006 0.2092894,0.4439004 0.086,0.3060002 -0.017126,-0.1543092 -0.050126,-0.2253091 -0.019,-0.055 -0.075779,-0.3545993 0.02222,-0.1725993 -0.096,-0.343 -0.3232121,-0.6370635 -0.5922121,-0.8650634 C 6.5802266,5.4329295 6.1959844,5.1656575 6.4249842,5.3816575 6.2889844,5.3166573 6.1909891,5.1359774 6.0089891,5.2219773 5.8719889,5.1769772 5.7343765,5.0967804 5.5893763,5.0617802 c -0.1919999,-0.095 -0.1892517,-0.013872 -0.3622517,-0.026872 -0.079,0.016999 -0.3738087,0.041913 -0.1328087,-0.018087 0.2600004,-0.042 -0.207913,-0.059805 0.018087,-0.024805 0.065,0.023 -0.145035,0.025953 -0.1860351,0.013952 -0.135,0 -0.1750394,0.00685 -0.032039,-0.066146 z m -2.1440551,1.2128458 -0.00206,0.050126 c -0.127,0.2380001 0.1660671,-0.050126 0.00206,-0.050126 z M 2.6474402,6.5950195 c -0.127,0.248 -0.010001,0.2800001 0,0 z m 3.4545695,0.6526734 -0.021704,0.029972 c -0.01,0.2090002 0.1007042,0.031028 0.021704,-0.029972 z m 1.0722861,0.2940388 c -0.056,0.1940002 -0.092035,0.3978096 -0.1860351,0.5798098 0.097,-0.174 0.1580351,-0.3798096 0.1860351,-0.5798098 z m -1.1260296,0.06718 c -0.038,0.074 -0.060197,0.1929403 -0.160197,0.2139402 0.023,0.075 0.1781971,-0.09694 0.160197,-0.2139402 z m -0.096118,0.059945 c -0.008,0.007 -0.025979,0.029964 -0.060978,0.075964 a 0.149,0.149 0 0 0 -0.00414,0.078031 c 0.014999,-0.061 0.088112,-0.1769956 0.065112,-0.1539957 z m -0.300757,0.3121249 a 0.55800001,0.55800001 0 0 1 -0.160197,0.01602 c -0.2770001,-0.04 0.1121971,0.1709804 0.160197,-0.01602 z m -1.2293823,0.011885 c 0.00101,0.04 0.024373,0.077138 0.042375,0.1121381 0.125,0.222 0.016626,-0.039138 -0.042375,-0.1121381 z m -0.078548,0.1369428 c -0.044,0.1249997 0.119552,0.2278099 0.1865519,0.3178098 A 3.81,3.81 0 0 0 4.3434609,8.1298094 Z"
       style="fill:#892ca0;fill-opacity:1;stroke-width:1"
       inkscape:connector-curvature="0" />
  </g>
</svg>

<?xml version="1.0" encoding="UTF-8" standalone="no"?><svg xmlns:dc="http://purl.org/dc/elements/1.1/" xmlns:cc="http://creativecommons.org/ns#" xmlns:rdf="http://www.w3.org/1999/02/22-rdf-syntax-ns#" xmlns="http://www.w3.org/2000/svg" width="48" height="48" viewBox="0 0 12.7 12.7"><metadata><rdf:RDF><cc:Work><dc:format>image/svg+xml</dc:format><dc:type rdf:resource="http://purl.org/dc/dcmitype/StillImage"/><dc:title/></cc:Work></rdf:RDF></metadata><path d="M7.34.5c-.05 0-.1.01-.13.03-.03.02-.04.04-.05.07v.99c.18.05.33.12.46.22.24.17.39.4.4.66h.02v.48c0 .26.27.46.61.46h2.21c.4 0 .75.14 1 .35V.97a.4.4 0 0 0-.18-.33.74.74 0 0 0-.44-.14H7.88z" fill="#892ca0"/><path d="M2.01 2C1.23 2 .6 2.42.6 2.97v8.67c0 .55.63.99 1.41.99h8.47c.79 0 1.42-.44 1.42-1V4.73h-.02c-.08-.5-.67-.88-1.4-.88H8.23c-.35-.01-.63-.2-.63-.45V2.92h-.01c-.04-.5-.62-.9-1.34-.93h-.03z" fill="#333"/><path d="M6.34 2.59c.33.01.59.2.59.43v.4c0 .49.53.88 1.22.95l2.44.02c.35 0 .63.2.63.43V11.61c0 .24-.28.43-.63.43H1.9c-.35 0-.63-.2-.63-.43V3.02c0-.24.28-.43.63-.43h4.44z" fill="#ccc"/><path d="M8.75 4.35v2.86c0 .16.07.3.18.4a.69.69 0 0 0-.3.57v1.38a.69.69 0 0 0 1.38 0V8.18a.69.69 0 0 0-.3-.56c.11-.1.18-.25.18-.41V4.35h-.28v.29h-.29v.28h.29v.29h-.29s.01.18 0 .28h.29v.29h-.29v.28h.29v.29h-.29v.29h.29v.28h-.29v.29h.29v.28h-.29v-.28h-.28v-.29h.28v-.28h-.28v-.29h.28v-.29h-.28v-.28h.28v-.29h-.28v-.28h.28v-.29h-.28v-.28h.28v-.29h-.28zm.57 3.49c.2 0 .35.13.35.34 0 .17-.16.34-.35.34a.36.36 0 0 1-.34-.34c0-.2.15-.34.34-.34zm0 1.03c.2 0 .35.15.35.34v.35a.34.34 0 0 1-.7 0V9.2c0-.19.16-.34.35-.34zM5.28 4.9l-.16.01.16-.01zm-.39.04c-.03-.03-.33.1-.28.02a4.26 4.26 0 0 0-.77.36 1.96 1.96 0 0 0-.53.43c-.18.16-.22.42-.38.6-.14.16-.22.5-.3.74.04.2 0 .43.01.64-.05.89.35 1.77 1 2.36.44.43 1.04.71 1.66.67-.2-.07-.46-.04-.64-.2-.06-.05-.16-.17-.2-.18.1.16-.2-.1-.27-.09.11-.1-.18-.13-.2-.27-.16.06-.2-.3-.25-.23-.05-.07-.32-.35-.2-.37-.13-.11-.14-.27-.24-.46.13.15.1 0 .02-.11-.1-.08-.35-.23-.26-.36-.06-.08-.08-.16-.05-.26-.13-.25-.07-.55-.05-.82 0-.18.03-.36.13-.52.01-.07.17-.22.06-.24a2.33 2.33 0 0 1 .56-.58c.04-.04.38-.16.2-.13.04-.14.36-.18.5-.25-.25.06.02-.03.12-.1.04-.07.52-.14.26-.06.03-.01.44-.1.63-.04.47.04.88.37 1.12.77.12.18.16.43.21.62 0 .22.03.44-.04.65.1-.23 0 .2-.04.26-.18.06-.06.3-.27.37-.06.07-.36.28-.21.1a.74.74 0 0 1-.41.23c-.58.18-1.22-.37-1.2-.96-.05.07-.05-.07-.03-.15a.86.86 0 0 1 1.04-.73c.1-.03.47.3.28.1-.33-.36-1-.3-1.24.14-.13.1-.15.28-.23.41-.05.28-.02.6.15.83.1.2.39.3.46.49-.13-.01-.48-.42-.3-.18.22.23-.09-.04-.15-.13-.16-.18-.03.05.05.11.3.28.74.5 1.15.38-.25-.02-.56.01-.74-.2.34.11.75.15 1.1-.01.23-.1.42-.28.59-.43-.03.24.02-.15.1-.2.08.17.04-.05.11-.12.08-.1.14-.57.13-.23-.07.25.04-.05.01-.14-.02-.17.03-.04.05.05-.05-.12.1-.36.04-.39-.06-.16 0-.25-.1-.42.15.22.03-.14 0-.22-.07.03-.16-.21 0-.17.1-.01.17.33.22.44.08.3-.02-.15-.05-.22-.02-.06-.08-.36.02-.18a1.8 1.8 0 0 0-.6-.86c-.06-.07-.44-.33-.22-.12-.13-.06-.23-.24-.41-.16-.14-.04-.28-.12-.42-.16-.2-.1-.19-.01-.36-.03-.08.02-.38.05-.14-.01.26-.05-.2-.06.02-.03.07.03-.14.03-.18.02-.14 0-.18 0-.04-.07zM2.75 6.15v.05c-.13.24.16-.05 0-.05zm-.1.45c-.13.24-.01.28 0 0zm3.45.65l-.02.03c-.01.2.1.03.02-.03zm1.07.3c-.05.19-.09.39-.18.57.1-.17.16-.38.18-.58zm-1.12.06c-.04.07-.06.2-.16.21.02.08.18-.1.16-.21zm-.1.06l-.06.07a.15.15 0 0 0 0 .08c.01-.06.09-.17.06-.15zm-.3.31A.56.56 0 0 1 5.5 8c-.28-.04.11.17.16-.02zM4.42 8c0 .04.03.08.04.12.13.22.02-.04-.04-.12zm-.08.14c-.04.12.12.23.19.32a3.81 3.81 0 0 0-.19-.32z" fill="#892ca0"/></svg>
